X: 15149
T: Gigue De Joliette
R: jig
M: 6/8
K: Fmajor
CFA c=Bc|=Bcd cAF|CFA c=Bc|=Bcd c3|
Acf e2e|GBd cAF|c=Bc edc|1 BAG A,B,=B,:|2 BAG F2=B,||
|:CFA c=Bc|dEE E3|dEE dEE|d=Bd cAF|
CFA c=Bc|dEE E3|c=Bc edc|1 BAG F2=B,:|2 BAG FAc||
|:f/g/af e/f/ge|dfd cAc|B/c/dB A/B/cA|GFG AGF|
f/g/af e/f/ge|dfd c2d|c=Bc edc|1 BAG FAc:|2 BAG FB,=B,||

